X:1045
T:Trip to Cullenstown, The
R:reel
C:Phil Murphy (1917-1989)
H:Also in A #811
D:Kevin Burke: Up Close
Z:id:hn-reel-1045
M:C|
L:1/8
K:G
d3e dBGA | B3G AGEG | d3e dBGA | BAAG A2GA |
Bd~d2 e2dB | dedB AGEG | B3G AGEG |1 DGGF GABc :|2 DGGF G2GA ||
|: Bd~d2 ce~e2 | d3e dBGA | Bd~d2 ed~d2 | gedB A2GA |
Bd~d2 e2dB | dedB AGEG | B3G ABGE |1 DGGF G2GA :|2 DGGF G4 ||

